X: 65
T:Briul de la Fagaras 
O:Romania
L:1/8
S:The People's International Silver String Macedonian Band
F: http://www.youtube.com/watch?v=CFlfAHTvJ-I
M:2/4
K:A
Q:1/4=120
|:"A".A,.B,.C.D    |.E.F.E2       |"E"E/F/G/F/ E/F/G/F/|"A"E/F/E3     |
| "A".A,.B,.C.D    |.E.F.E2       |{A}az.E.F           |GA2z          :|
|:"A"A4            |"D"GF3        |"D"ED3              |"E"CB,3       |\
  E/F/G/F/ E/F/G/F/|E/F/G/F/ "A"ED|CB,A,2              |"D"DC "E"B,A, :|



